packages/foundations/assets/icons/functional/images/audio & video/volume_disabled_20.svg

<svg width="20" height="20" viewBox="0 0 20 20" fill="none" xmlns="http://www.w3.org/2000/svg">
<g clip-path="url(#clip0_184_401)">
<path fill-rule="evenodd" clip-rule="evenodd" d="M15.97 2.995C16.439 2.995 16.966 3.307 16.966 3.971C16.966 4.185 16.907 4.4 16.771 4.595L4.73 16.693C4.63717 16.7831 4.52722 16.8537 4.40664 16.9006C4.28607 16.9475 4.15732 16.9697 4.028 16.966C3.75726 16.9653 3.49754 16.8587 3.30433 16.669C3.11112 16.4794 2.99974 16.2217 2.994 15.951C2.994 15.737 3.064 15.534 3.228 15.366L4.565 13.991C3.17 13.788 2 12.631 2 11.035V9.045C2 7.435 3.398 6.02 4.81 6.02H5.727L8.478 4.205C8.63869 4.09384 8.82864 4.03261 9.024 4.029C9.512 4.029 10 4.419 10 4.907V8.576L13.551 5.005L13.317 4.751C13.2153 4.66518 13.1344 4.55743 13.0804 4.43584C13.0263 4.31425 13.0005 4.18198 13.005 4.049C13.005 3.502 13.454 3.014 14.019 3.014C14.39 3.014 14.527 3.132 14.995 3.6L15.268 3.288C15.45 3.08 15.697 2.995 15.97 2.995ZM8.01 6.878L6.878 7.658C6.453 7.952 6.234 8.029 6 8.029H5.005C4.87232 8.02814 4.74081 8.05399 4.61833 8.10502C4.49584 8.15604 4.38488 8.23119 4.29204 8.32599C4.1992 8.42079 4.12638 8.5333 4.07793 8.65682C4.02948 8.78035 4.00638 8.91236 4.01 9.045V11.035C4.01 11.455 4.325 12.011 5.005 12.011H6C6.2 12.011 6.257 12.065 6.449 12.128L8.009 10.567V6.878H8.01ZM8.4 15.814L10 14.214V14.995C10 15.58 9.57 16.029 8.966 16.029C8.79 16.029 8.673 15.97 8.4 15.814ZM11.405 12.81L14 10.254C13.902 11.229 13.395 12.127 12.654 12.79C12.4863 12.9347 12.2704 13.0114 12.049 13.005C11.834 13.005 11.698 12.965 11.405 12.81ZM13.005 16.01C13.005 15.736 13.122 15.444 13.337 15.249C14.127 14.6 14.7714 13.7919 15.2285 12.8774C15.6856 11.9629 15.9451 10.9624 15.99 9.941C15.99 9.395 15.932 9.04399 15.737 8.47799L17.297 6.936C17.747 7.87299 17.961 8.907 18 9.941C17.902 12.595 16.673 15.054 14.644 16.771C14.478 16.9208 14.2626 17.0041 14.039 17.005C13.454 17.005 13.005 16.575 13.005 16.01Z" fill="#1A1C1F"/>
</g>
<defs>
<clipPath id="clip0_184_401">
<rect width="20" height="20" fill="white"/>
</clipPath>
</defs>
</svg>

<svg xmlns="http://www.w3.org/2000/svg" width="20" height="20" fill="none"><g clip-path="url(#a)"><path fill="#1A1C1F" fill-rule="evenodd" d="M15.97 2.995c.469 0 .996.312.996.976 0 .214-.059.429-.195.624L4.73 16.693a.97.97 0 0 1-.702.273 1.037 1.037 0 0 1-1.034-1.015c0-.214.07-.417.234-.585l1.337-1.375C3.17 13.788 2 12.631 2 11.035v-1.99C2 7.435 3.398 6.02 4.81 6.02h.917l2.751-1.815a1 1 0 0 1 .546-.176c.488 0 .976.39.976.878v3.669l3.551-3.571-.234-.254a.88.88 0 0 1-.312-.702c0-.547.449-1.035 1.014-1.035.371 0 .508.118.976.586l.273-.312c.182-.208.429-.293.702-.293M8.01 6.878l-1.132.78c-.425.294-.644.371-.878.371h-.995a.99.99 0 0 0-.995 1.016v1.99c0 .42.315.976.995.976H6c.2 0 .257.054.449.117l1.56-1.561zm.39 8.936 1.6-1.6v.781c0 .585-.43 1.034-1.034 1.034-.176 0-.293-.059-.566-.215m3.005-3.004L14 10.254c-.098.975-.605 1.873-1.346 2.536a.9.9 0 0 1-.605.215c-.215 0-.351-.04-.644-.195m1.6 3.2c0-.274.117-.566.332-.761a7.28 7.28 0 0 0 2.653-5.308c0-.546-.058-.897-.253-1.463l1.56-1.542c.45.937.664 1.971.703 3.005-.098 2.654-1.327 5.113-3.356 6.83a.9.9 0 0 1-.605.234c-.585 0-1.034-.43-1.034-.995" clip-rule="evenodd"/></g><defs><clipPath id="a"><path fill="#fff" d="M0 0h20v20H0z"/></clipPath></defs></svg>
